X:1
T:Snowy Path (Slip Jig)
M:9/8
L:1/8
R:slip jig
O:Mark Kelly (13.11.2013/NS)
K:Dmaj
"D"F2A B2F A3|"G"G2B d2e dBG|"D"F2A B2F A3|"A"E2D E2F GFE|
"D"F2A B2F A3|"G"G2B d2e dBG|"Hm"F2A B2F A3|"A"E2D E2F GAB||
"D/F#"c3 c2e d2c|"G"B2G B2c d2e|"Hm"f3 f2e d2B|"A"A2G F2G A2B|
"D/F#"c3 c2e d2c|"G"B2G B2c d2e|"D"d2A B2F A2F|"A"E2D E2F GFE||
